X: 39882
T: This Is My Love, Do You Like Her?
R: jig
M: 6/8
K: Bdorian
|:~B3 BAB|d3 e3|~f3 fef|a3 b3|
afe d2f|ecB ABc|~d3 cBA|1 B3 B2A:|2 B3 B2f||
|:b3 baf|a2f afa|b3 baf|a3 b3|
afe d2f|ecB ABc|d2B cBA|1 B3 B2f:|2 B3 B2A||

